card-search-outline.svg

<svg fill="currentColor" viewBox="0 0 24 24"><path d="M11.5 16c.87 0 1.69-.26 2.38-.7l2.44 2.44 1.42-1.42-2.44-2.43A4.481 4.481 0 0 0 11.5 7C9 7 7 9 7 11.5S9 16 11.5 16m0-7a2.5 2.5 0 0 1 0 5 2.5 2.5 0 0 1 0-5M20 4H4c-1.1 0-2 .9-2 2v12c0 1.1.9 2 2 2h16c1.1 0 2-.9 2-2V6c0-1.1-.9-2-2-2m0 14H4V6h16z"/></svg>

<svg  viewBox="0 0 24 24" fill="currentColor"><path  d="M11.5 16C12.37 16 13.19 15.74 13.88 15.3L16.32 17.74L17.74 16.32L15.3 13.89C15.74 13.19 16 12.38 16 11.5C16 9 14 7 11.5 7S7 9 7 11.5 9 16 11.5 16M11.5 9C12.88 9 14 10.12 14 11.5S12.88 14 11.5 14 9 12.88 9 11.5 10.12 9 11.5 9M20 4H4C2.9 4 2 4.9 2 6V18C2 19.1 2.9 20 4 20H20C21.1 20 22 19.1 22 18V6C22 4.9 21.1 4 20 4M20 18H4V6H20V18Z"/></svg>
